src/images/std-icons/std-twitter.svg

<svg xmlns="http://www.w3.org/2000/svg" width="512" height="512" viewBox="0 0 512 512">
  <title>twitter</title>
  <path fill="#000" fill-rule="nonzero" d="M256,42.6666667 C138.179253,42.6666667 42.6666667,138.179253 42.6666667,256 C42.6666667,373.820747 138.179253,469.333333 256,469.333333 C373.820747,469.333333 469.333333,373.820747 469.333333,256 C469.333333,199.420482 446.857207,145.158314 406.849447,105.150553 C366.841686,65.1427926 312.579518,42.6666667 256,42.6666667 Z M361.386667,218.453333 C361.386667,220.586667 361.386667,222.72 361.386667,224.853333 C361.523088,275.272795 334.114981,321.742078 289.92335,346.016354 C245.731718,370.290631 191.81166,368.494566 149.333333,341.333333 C153.241397,341.551669 157.158603,341.551669 161.066667,341.333333 C182.94863,341.190896 204.143481,333.674991 221.226667,320 C200.453277,319.570711 182.224265,306.048721 175.786667,286.293333 C178.841153,286.493983 181.905514,286.493983 184.96,286.293333 C189.282399,286.278622 193.584747,285.704976 197.76,284.586667 C175.132925,280.01036 158.881982,260.098491 158.933333,237.013333 L158.933333,237.013333 C165.446978,240.752839 172.762967,242.874475 180.266667,243.2 C166.815636,234.213497 158.795888,219.056173 158.933333,202.88 C158.994446,194.27 161.272043,185.820851 165.546667,178.346667 C190.204328,208.674335 226.564244,227.125636 265.6,229.12 C264.741261,225.484953 264.311662,221.761761 264.32,218.026667 C264.901596,191.615665 286.542881,170.543888 312.96,170.66565 C326.399165,170.579077 339.253992,176.154664 348.373333,186.026667 C359.214336,183.919832 369.608158,179.949969 379.093333,174.293333 C375.473867,185.487299 367.886425,194.971602 357.76,200.96 C367.383034,199.811748 376.793246,197.297569 385.706667,193.493333 C379.122526,203.171943 370.891024,211.620063 361.386667,218.453333 Z"/>
</svg>

<svg xmlns="http://www.w3.org/2000/svg" viewBox="0 0 512 512">
  <title>
    twitter
  </title>
  <path d="M256 42.67c-117.82 0-213.33 95.5-213.33 213.33 0 117.82 95.5 213.33 213.33 213.33 117.82 0 213.33-95.5 213.33-213.33A213.33 213.33 0 0 0 256 42.67zm105.39 175.78v6.4a137.81 137.81 0 0 1-212.06 116.48c3.91.22 7.83.22 11.74 0A97.28 97.28 0 0 0 221.23 320a48.85 48.85 0 0 1-45.44-33.7c3.05.2 6.12.2 9.17 0 4.32-.02 8.62-.6 12.8-1.71A48.43 48.43 0 0 1 158.93 237a46.93 46.93 0 0 0 21.34 6.19 48 48 0 0 1-21.34-40.32 50.13 50.13 0 0 1 6.62-24.53 138.03 138.03 0 0 0 100.05 50.77 47.79 47.79 0 0 1-1.28-11.1 48.43 48.43 0 0 1 48.64-47.35 47.8 47.8 0 0 1 35.41 15.36 95.57 95.57 0 0 0 30.72-11.74 48.21 48.21 0 0 1-21.33 26.67 101.97 101.97 0 0 0 27.95-7.47 100.05 100.05 0 0 1-24.32 24.96z"/>
</svg>
